svg/微信好友.svg

<svg width="24" height="24" viewBox="0 0 24 24" fill="none" xmlns="http://www.w3.org/2000/svg"><circle cx="12" cy="12" r="12" fill="#34D399"/><rect width="14.4" height="14.4" transform="translate(4.7998 4.80005)" fill="#34D399"/><path fill-rule="evenodd" clip-rule="evenodd" d="M15.899 11.3133C15.8528 8.70235 13.7218 6.59998 11.0998 6.59998C8.44882 6.59998 6.2998 8.749 6.2998 11.4C6.2998 12.651 6.7784 13.7903 7.56248 14.6446L7.20293 16.8077L9.3373 15.8909C10.2777 16.2036 11.1652 16.2818 11.9998 16.1255" fill="white"/><path d="M15.899 11.3133C15.8528 8.70235 13.7218 6.59998 11.0998 6.59998C8.44882 6.59998 6.2998 8.749 6.2998 11.4C6.2998 12.651 6.7784 13.7903 7.56248 14.6446L7.20293 16.8077L9.3373 15.8909C10.2777 16.2036 11.1652 16.2818 11.9998 16.1255" stroke="white" stroke-width="0.9" stroke-linecap="round" stroke-linejoin="round"/><path d="M9.3376 10.9389C9.71038 10.9389 10.0126 10.6344 10.0126 10.2589C10.0126 9.88333 9.71038 9.57886 9.3376 9.57886C8.96482 9.57886 8.6626 9.88333 8.6626 10.2589C8.6626 10.6344 8.96482 10.9389 9.3376 10.9389Z" fill="#34D399"/><path d="M12.0373 10.9389C12.4101 10.9389 12.7123 10.6344 12.7123 10.2589C12.7123 9.88333 12.4101 9.57886 12.0373 9.57886C11.6645 9.57886 11.3623 9.88333 11.3623 10.2589C11.3623 10.6344 11.6645 10.9389 12.0373 10.9389Z" fill="#34D399"/><path fill-rule="evenodd" clip-rule="evenodd" d="M16.4284 16.7788C15.904 17.169 15.2539 17.4 14.5499 17.4C12.8102 17.4 11.3999 15.9897 11.3999 14.25C11.3999 12.5103 12.8102 11.1 14.5499 11.1C16.2896 11.1 17.6999 12.5103 17.6999 14.25C17.6999 14.7299 17.5926 15.1847 17.4006 15.5918" fill="white"/><path d="M16.4284 16.7788C15.904 17.169 15.2539 17.4 14.5499 17.4C12.8102 17.4 11.3999 15.9897 11.3999 14.25C11.3999 12.5103 12.8102 11.1 14.5499 11.1C16.2896 11.1 17.6999 12.5103 17.6999 14.25C17.6999 14.7299 17.5926 15.1847 17.4006 15.5918" stroke="white" stroke-width="0.9" stroke-linecap="round" stroke-linejoin="round"/><path fill-rule="evenodd" clip-rule="evenodd" d="M17.4019 15.593L17.7011 17.4012L16.4297 16.78" fill="white"/><path d="M17.4019 15.593L17.7011 17.4012L16.4297 16.78" stroke="white" stroke-width="0.9" stroke-linecap="round" stroke-linejoin="round"/><path d="M15.5063 14.0395C15.2267 14.0395 15 13.8112 15 13.5295C15 13.2479 15.2267 13.0195 15.5063 13.0195C15.7859 13.0195 16.0125 13.2479 16.0125 13.5295C16.0125 13.8112 15.7859 14.0395 15.5063 14.0395Z" fill="#34D399"/><path d="M13.4813 14.0395C13.2017 14.0395 12.9751 13.8112 12.9751 13.5295C12.9751 13.2479 13.2017 13.0195 13.4813 13.0195C13.7609 13.0195 13.9876 13.2479 13.9876 13.5295C13.9876 13.8112 13.7609 14.0395 13.4813 14.0395Z" fill="#34D399"/><defs><clipPath id="clip0_114_13568"><rect width="24" height="24" fill="white"/></clipPath></defs></svg>

<svg fill="none" viewBox="0 0 24 24"><circle cx="12" cy="12" r="12" fill="#34D399"/><path fill="#34D399" d="M4.8 4.8h14.4v14.4H4.8z"/><path fill="white" fill-rule="evenodd" d="M15.899 11.313a4.8 4.8 0 1 0-8.337 3.332l-.36 2.163 2.135-.917q1.41.469 2.663.234" clip-rule="evenodd"/><path stroke="white" stroke-linecap="round" stroke-linejoin="round" stroke-width=".9" d="M15.899 11.313a4.8 4.8 0 1 0-8.337 3.332l-.36 2.163 2.135-.917q1.41.469 2.663.234"/><path fill="#34D399" d="M9.338 10.939a.68.68 0 0 0 .675-.68.68.68 0 0 0-.675-.68.68.68 0 0 0-.675.68c0 .375.302.68.675.68"/><path fill="#34D399" d="M12.037 10.939a.68.68 0 0 0 .675-.68.68.68 0 0 0-.675-.68.68.68 0 0 0-.675.68c0 .375.303.68.675.68"/><path fill="white" fill-rule="evenodd" d="M16.428 16.779a3.15 3.15 0 1 1 .972-1.187" clip-rule="evenodd"/><path stroke="white" stroke-linecap="round" stroke-linejoin="round" stroke-width=".9" d="M16.428 16.779a3.15 3.15 0 1 1 .972-1.187"/><path fill="white" fill-rule="evenodd" d="m17.402 15.593.3 1.808-1.272-.621" clip-rule="evenodd"/><path stroke="white" stroke-linecap="round" stroke-linejoin="round" stroke-width=".9" d="m17.402 15.593.3 1.808-1.272-.621"/><path fill="#34D399" d="M15.506 14.04a.51.51 0 0 1-.506-.51c0-.282.227-.51.506-.51.28 0 .506.228.506.51 0 .281-.226.51-.506.51"/><path fill="#34D399" d="M13.481 14.04a.51.51 0 0 1-.506-.51c0-.282.227-.51.506-.51.28 0 .507.228.507.51 0 .281-.227.51-.507.51"/></svg>
